X:882
T:Back o' Benachie, The
S:My father, Bill Gatherer
Z:Nigel Gatherer
M:4/4
L:1/8
K:D
dB | A2 AB ABde  | f2 f2 f2 ed | f2 f2 f2 ed | e2 ef edBd |
     A2 AB ABde  | f2 f2 f2 ed | a2 A2 A2 Bc | d4 d2     :|
B2 | A2 F2 F2 A2 | G2 E2 E2 G2 | F2 D2 F2 A2 | d2 cd edcB |
     A2 F2 F2 A2 | G2 E2 E2 G2 | F2 D2 F2 A2 | d4 d2     :|
